COLOR/action 16/16/align-vertical-baseline.svg

<svg viewBox="0 0 24 24" xmlns="http://www.w3.org/2000/svg"><g fill="#d0438d" transform="matrix(-1 0 0 .997921 455.48136 -19.060681)"><path d="m454.98136 37.137891v-1.002084h-23v1.002084z" fill="#e95420" stroke-width="1.200206"/><g fill="#1a7fd4"><path d="m449.84796 28.025785c-.7787-.67701-2.1025-.43431-2.6929.34854-.9754 1.18561-1.2575 2.70228-1.6164 4.12145-.2662 1.21031-.4334 2.4394-.501 3.67318-.7883-1.56023-1.6965-3.23606-1.713-4.99301-.0218-.88805.5124-1.6408.8692-2.42613.2947-.65823-.5167-1.34316-1.2125-1.13198-.8522.16578-.9942 1.10615-.9696 1.78045.0896 2.00548.9121 3.97467 1.7444 5.80752 1.1795 2.42043 2.8678 4.66505 5.076 6.36815.8684.6241 3.0647 1.3479 4.1492.972 2-.9952 2-2.9856 0-2.9856-.7186-.3241-2.5391 1.2439-3.2752 1.2192-1.2149-.009-2.081-1.0514-2.4089-2.0443-.3332-1.31356-.0214-2.6707.1844-3.98039.3353-1.70254.7126-3.43957 1.5965-4.97978.1808-.59819 1.5972-.95372.7698-1.7493z"/><path d="m436.64521 32.461463c.5525 0 .96935.08732 1.25052.261959.27626.174645.41438.43201.41438.772093 0 .312517-.11099.558395-.33298.737625-.22692.174646-.54017.261969-.93975.261969-.49823 0-.91754-.165447-1.25793-.496351-.34037-.335489-.51056-.753706-.51057-1.254652v-.282643h1.37632m-4.04757-.930649v4.405078h2.67125v-1.144357c.35518.468775.75476.811165 1.19873 1.027161.44398.21141.98415.317111 1.62051.317111.85835 0 1.55638-.232086 2.09408-.696266.53277-.468765.79916-1.075411.79916-1.819938 0-.90537-.33298-1.569465-.99894-1.992287-.6709-.422802-1.72164-.634212-3.15223-.634222h-1.56131v-.193023c.00001-.390631.16527-.675572.49577-.854822.33052-.183825.84603-.275742 1.54651-.275742.56731 0 1.09515.05285 1.58352.158556.48837.10571.94221.264265 1.36152.475666v-1.881982c-.5673-.128682-1.13707-.225193-1.70931-.289544-.57223-.06893-1.14446-.103394-1.7167-.103403-1.4947.000009-2.57258.275761-3.23362.827245-.66594.546909-.99893 1.438496-.99894 2.67476"/><g stroke-width=".99896" transform="matrix(-1 0 0 1.0020833 455.48136 19.100391)"><path d="m12.236328 8.4609375c-.605417-.0013454-1.179857.5706476-.958984 1.1347656.135118-.3582492.537807-.6357186.958984-.6347656.0882.0001896.176672.0127174.263672.0390625.715572.1389121.919338.8174154.955078 1.431641.003272-.051549.011362-.102698.013672-.154297.0246-.6728986-.11655-1.6119087-.96875-1.777344-.086975-.0263426-.175471-.0388665-.263672-.0390625zm-5.564453.0527344c-.3779817.0152225-.74705.1392272-1.0390625.3925781-.3029885.2907305-.3017123.5220307-.1738281.7285156.0414071-.0726987.089271-.1473795.1738281-.2285156.7787-.6756025 2.1029594-.4335662 2.6933594.3476562.9754 1.1831448 1.2582875 2.6970618 1.6171875 4.1132818.2637996 1.196883.4272936 2.412804.4960936 3.632812h.021485c.78437-1.547617 1.678912-3.208289 1.695312-4.949219.001557-.063289-.017637-.121613-.021484-.183593-.112517 1.625446-.937298 3.179581-1.673828 4.632812h-.021485c-.068772-1.220009-.232298-2.435929-.4960936-3.632812-.3589-1.41622-.6417875-2.930137-1.6171875-4.1132818-.369-.4882639-1.0243273-.7656051-1.6542969-.7402343zm11.978516.3964843c-.57224.000009-1.144567.034729-1.716797.1035157-.57224.0642172-1.141685.160648-1.708985.2890625v.5c.5673-.1284145 1.136745-.2248463 1.708985-.2890625.57223-.0687877 1.144557-.1035067 1.716797-.1035157 1.4947.000009 2.573335.2758345 3.234375.8261718.66594.545772.998037 1.434275.998046 2.667969v-.5c-.000009-1.233694-.332106-2.122197-.998046-2.6679689-.66104-.5503374-1.739675-.8261629-3.234375-.8261719zm0 2.9570318c-1.43059.000008-2.481444.210889-3.152344.632812-.66596.421943-.998047 1.084794-.998047 1.988281 0 .088748.015844.169079.023438.253907.058292-.773448.373373-1.361253.974609-1.742188.6709-.421923 1.721754-.632804 3.152344-.632812h1.5625v-.191407c-.000003-.112997-.019064-.213265-.046875-.308593zm1.542968 1.966796c-.044179.402492-.203623.749368-.492187 1.033204-.34039.330215-.759583.496093-1.257813.496093-.39958 0-.712533-.087436-.939453-.261719-.164397-.132454-.246683-.314061-.289062-.519531-.025496.088053-.042969.180017-.042969.283203 0 .311869.110041.557472.332031.736328.22692.174281.539873.261719.939453.261719.49823 0 .917423-.165877 1.257813-.496093.34037-.334793.511709-.752049.511719-1.251954v-.28125zm-19.693359 3.166016v.5h7.7148438c-.0237995-.167642-.0520327-.332779-.078125-.5zm11.001953 0c-.086197.166778-.168324.335169-.259765.5h6.15039c-.720993 0-1.321724-.173064-1.816406-.5zm5.890625.5h6.107422v-.5h-.617188v.300781h-2.669921v-.300781h-.921875c-.093124.059424-.179988.136328-.277344.183594-.44398.21097-.984734.316406-1.621094.316406zm-9.0878905 1c-.0050337.36663-.0290866.731788-.1210937 1.09375-.3279001.990836-1.1933032 2.032034-2.4082032 2.041016-.7361.024648-2.5567906-1.540223-3.2753906-1.216797-1.1365952 0-1.60447216.644963-1.4492188 1.380859.1172418-.501296.5848587-.880859 1.4492188-.880859.7186-.323426 2.5392906 1.241445 3.2753906 1.216797 1.2149-.008983 2.0803032-1.05018 2.4082032-2.041016.1337499-.526259.1485468-1.05935.1230468-1.59375z" fill="#fff" opacity=".2"/><path d="m11.277344 9.0957031c-.062954.1669116-.072192.3505275.009765.5332031.331319.7277298.797637 1.4323848.847657 2.2382818.007308-.105572.020484-.210231.021484-.316407.0218-.886202-.512341-1.6381765-.869141-2.4218748-.005008-.0111634-.00539-.0220291-.009765-.0332031zm-5.8183596.0410157c-.3603529.637429.7811993.9802212.9433594 1.5156252.8838999 1.537008 1.2623562 3.269749 1.5976562 4.96875.0456306.289784.0908554.584994.1367188.878906h.078125c-.06563-.462294-.1432438-.924249-.2148438-1.378906-.3353-1.699002-.7137563-3.431742-1.5976562-4.96875-.1144186-.3777754-.721177-.6590135-.9433594-1.0156252zm7.9960936.7949218c-.123627 1.9478014-.919628 3.8587424-1.730469 5.6406254-.15263.312563-.312722.621837-.482421.927734h.259765c.073771-.142733.152269-.283594.222656-.427734.8323-1.82904 1.654541-3.793612 1.744141-5.794922.003944-.107882-.006848-.228426-.013672-.3457034zm4.714844.1152344c-.56731 0-1.095615.052718-1.583984.158203-.488371.10549-.942019.263648-1.361329.47461v.5c.41931-.210962.872958-.36912 1.361329-.47461.488369-.105486 1.016674-.158203 1.583984-.158203.70048 0 1.216355.091948 1.546875.275391.23544.127427.383352.310308.451172.544922h.044922v-.191407c-.00001-.38982-.165594-.674638-.496094-.853515-.33052-.183442-.846395-.275391-1.546875-.275391zm.666016 2.787109c-.552501 0-.968831.08549-1.25.259766-.27626.174282-.414063.432108-.414063.771484 0 .080912.028122.144815.042969.216797.058361-.201549.178829-.366989.371094-.488281.281169-.174276.697499-.259766 1.25-.259766h1.357421c.007932-.072259.01953-.142662.019532-.21875v-.28125zm-4.3125 1.408204c-.006276.083262-.023438.158285-.023438.246093 0 .742979.266058 1.348616.798828 1.816407.086045.074125.183102.133027.277344.195312h1.816406c-.85835 0-1.55605-.232099-2.09375-.695312-.469131-.411915-.719414-.937167-.77539-1.5625zm2.86914 2.257812h1.898438c.331545-.211565.64458-.476578.921875-.841797v-.5c-.35518.467802-.755249.809844-1.199219 1.025391-.44398.21097-.984734.316406-1.621094.316406zm2.820313-.199219v.199219h2.669921v-.199219zm-19.712891 1.199219v.5h7.8046875c.002288-.166415.0099141-.333163.0019531-.5zm10.142578 0c-1.0602899 1.667427-2.3880905 3.191621-3.9941405 4.427734-.8684.622804-3.0639375 1.34387-4.1484375.96875-.8643801-.429221-1.3319916-1.040084-1.4492188-1.599609-.15465884.658718.3130908 1.535447 1.4492188 2.099609 1.0845.375119 3.2800375-.345947 4.1484375-.96875 1.6060569-1.236114 2.933854-2.760307 3.9941405-4.427734h12.857422v-.5z" fill="#000" opacity=".2"/></g></g></g></svg>

<?xml version="1.0" encoding="UTF-8" standalone="no"?>
<svg
   xmlns:dc="http://purl.org/dc/elements/1.1/"
   xmlns:cc="http://creativecommons.org/ns#"
   xmlns:rdf="http://www.w3.org/1999/02/22-rdf-syntax-ns#"
   xmlns:svg="http://www.w3.org/2000/svg"
   xmlns="http://www.w3.org/2000/svg"
   xmlns:sodipodi="http://sodipodi.sourceforge.net/DTD/sodipodi-0.dtd"
   xmlns:inkscape="http://www.inkscape.org/namespaces/inkscape"
   viewBox="0 0 24 24"
   version="1.1"
   id="svg12"
   sodipodi:docname="align-vertical-baseline.svg"
   inkscape:version="0.92.4 (5da689c313, 2019-01-14)">
  <metadata
     id="metadata18">
    <rdf:RDF>
      <cc:Work
         rdf:about="">
        <dc:format>image/svg+xml</dc:format>
        <dc:type
           rdf:resource="http://purl.org/dc/dcmitype/StillImage" />
      </cc:Work>
    </rdf:RDF>
  </metadata>
  <defs
     id="defs16" />
  <sodipodi:namedview
     pagecolor="#ffffff"
     bordercolor="#666666"
     borderopacity="1"
     objecttolerance="10"
     gridtolerance="10"
     guidetolerance="10"
     inkscape:pageopacity="0"
     inkscape:pageshadow="2"
     inkscape:window-width="794"
     inkscape:window-height="480"
     id="namedview14"
     showgrid="false"
     inkscape:zoom="9.8333333"
     inkscape:cx="12"
     inkscape:cy="12"
     inkscape:window-x="0"
     inkscape:window-y="27"
     inkscape:window-maximized="0"
     inkscape:current-layer="g8" />
  <g
     transform="matrix(-1,0,0,0.997921,455.48136,-19.060681)"
     id="g10"
     style="fill:#d0438d">
    <path
       d="m 454.98136,37.137891 v -1.002084 h -23 v 1.002084 z"
       id="path2"
       inkscape:connector-curvature="0"
       style="fill:#e95420;stroke-width:1.20020604" />
    <g
       id="g8"
       style="fill:#1a7fd4">
      <path
         d="m 449.84796,28.025785 c -0.7787,-0.67701 -2.1025,-0.43431 -2.6929,0.34854 -0.9754,1.18561 -1.2575,2.70228 -1.6164,4.12145 -0.2662,1.21031 -0.4334,2.4394 -0.501,3.67318 -0.7883,-1.56023 -1.6965,-3.23606 -1.713,-4.99301 -0.0218,-0.88805 0.5124,-1.6408 0.8692,-2.42613 0.2947,-0.65823 -0.5167,-1.34316 -1.2125,-1.13198 -0.8522,0.16578 -0.9942,1.10615 -0.9696,1.78045 0.0896,2.00548 0.9121,3.97467 1.7444,5.80752 1.1795,2.42043 2.8678,4.66505 5.076,6.36815 0.8684,0.6241 3.0647,1.3479 4.1492,0.972 2,-0.9952 2,-2.9856 0,-2.9856 -0.7186,-0.3241 -2.5391,1.2439 -3.2752,1.2192 -1.2149,-0.009 -2.081,-1.0514 -2.4089,-2.0443 -0.3332,-1.31356 -0.0214,-2.6707 0.1844,-3.98039 0.3353,-1.70254 0.7126,-3.43957 1.5965,-4.97978 0.1808,-0.59819 1.5972,-0.95372 0.7698,-1.7493 z"
         id="path4"
         inkscape:connector-curvature="0" />
      <path
         d="m 436.64521,32.461463 c 0.5525,0 0.96935,0.08732 1.25052,0.261959 0.27626,0.174645 0.41438,0.43201 0.41438,0.772093 0,0.312517 -0.11099,0.558395 -0.33298,0.737625 -0.22692,0.174646 -0.54017,0.261969 -0.93975,0.261969 -0.49823,0 -0.91754,-0.165447 -1.25793,-0.496351 -0.34037,-0.335489 -0.51056,-0.753706 -0.51057,-1.254652 v -0.282643 h 1.37632 m -4.04757,-0.930649 v 4.405078 h 2.67125 v -1.144357 c 0.35518,0.468775 0.75476,0.811165 1.19873,1.027161 0.44398,0.21141 0.98415,0.317111 1.62051,0.317111 0.85835,0 1.55638,-0.232086 2.09408,-0.696266 0.53277,-0.468765 0.79916,-1.075411 0.79916,-1.819938 0,-0.90537 -0.33298,-1.569465 -0.99894,-1.992287 -0.6709,-0.422802 -1.72164,-0.634212 -3.15223,-0.634222 h -1.56131 v -0.193023 c 10e-6,-0.390631 0.16527,-0.675572 0.49577,-0.854822 0.33052,-0.183825 0.84603,-0.275742 1.54651,-0.275742 0.56731,0 1.09515,0.05285 1.58352,0.158556 0.48837,0.10571 0.94221,0.264265 1.36152,0.475666 v -1.881982 c -0.5673,-0.128682 -1.13707,-0.225193 -1.70931,-0.289544 -0.57223,-0.06893 -1.14446,-0.103394 -1.7167,-0.103403 -1.4947,9e-6 -2.57258,0.275761 -3.23362,0.827245 -0.66594,0.546909 -0.99893,1.438496 -0.99894,2.67476"
         id="path6"
         inkscape:connector-curvature="0" />
      <path
         style="stroke-width:0.99895996;fill:#ffffff;fill-opacity:1;opacity:0.2"
         d="M 12.236328 8.4609375 C 11.630911 8.4595921 11.056471 9.0315851 11.277344 9.5957031 C 11.412462 9.2374539 11.815151 8.9599845 12.236328 8.9609375 C 12.324528 8.9611271 12.413 8.9736549 12.5 9 C 13.215572 9.1389121 13.419338 9.8174154 13.455078 10.431641 C 13.45835 10.380092 13.46644 10.328943 13.46875 10.277344 C 13.49335 9.6044454 13.3522 8.6654353 12.5 8.5 C 12.413025 8.4736574 12.324529 8.4611335 12.236328 8.4609375 z M 6.671875 8.5136719 C 6.2938933 8.5288944 5.924825 8.6528991 5.6328125 8.90625 C 5.329824 9.1969805 5.3311002 9.4282807 5.4589844 9.6347656 C 5.5003915 9.5620669 5.5482554 9.4873861 5.6328125 9.40625 C 6.4115125 8.7306475 7.7357719 8.9726838 8.3261719 9.7539062 C 9.3015719 10.937051 9.5844594 12.450968 9.9433594 13.867188 C 10.207159 15.064071 10.370653 16.279992 10.439453 17.5 L 10.460938 17.5 C 11.245308 15.952383 12.13985 14.291711 12.15625 12.550781 C 12.157807 12.487492 12.138613 12.429168 12.134766 12.367188 C 12.022249 13.992634 11.197468 15.546769 10.460938 17 L 10.439453 17 C 10.370681 15.779991 10.207155 14.564071 9.9433594 13.367188 C 9.5844594 11.950968 9.3015719 10.437051 8.3261719 9.2539062 C 7.9571719 8.7656423 7.3018446 8.4883011 6.671875 8.5136719 z M 18.650391 8.9101562 C 18.078151 8.9101652 17.505824 8.9448852 16.933594 9.0136719 C 16.361354 9.0778891 15.791909 9.1743199 15.224609 9.3027344 L 15.224609 9.8027344 C 15.791909 9.6743199 16.361354 9.5778881 16.933594 9.5136719 C 17.505824 9.4448842 18.078151 9.4101652 18.650391 9.4101562 C 20.145091 9.4101652 21.223726 9.6859907 21.884766 10.236328 C 22.550706 10.7821 22.882803 11.670603 22.882812 12.904297 L 22.882812 12.404297 C 22.882803 11.170603 22.550706 10.2821 21.884766 9.7363281 C 21.223726 9.1859907 20.145091 8.9101652 18.650391 8.9101562 z M 18.650391 11.867188 C 17.219801 11.867196 16.168947 12.078077 15.498047 12.5 C 14.832087 12.921943 14.5 13.584794 14.5 14.488281 C 14.5 14.577029 14.515844 14.65736 14.523438 14.742188 C 14.58173 13.96874 14.896811 13.380935 15.498047 13 C 16.168947 12.578077 17.219801 12.367196 18.650391 12.367188 L 20.212891 12.367188 L 20.212891 12.175781 C 20.212888 12.062784 20.193827 11.962516 20.166016 11.867188 L 18.650391 11.867188 z M 20.193359 13.833984 C 20.14918 14.236476 19.989736 14.583352 19.701172 14.867188 C 19.360782 15.197403 18.941589 15.363281 18.443359 15.363281 C 18.043779 15.363281 17.730826 15.275845 17.503906 15.101562 C 17.339509 14.969108 17.257223 14.787501 17.214844 14.582031 C 17.189348 14.670084 17.171875 14.762048 17.171875 14.865234 C 17.171875 15.177103 17.281916 15.422706 17.503906 15.601562 C 17.730826 15.775843 18.043779 15.863281 18.443359 15.863281 C 18.941589 15.863281 19.360782 15.697404 19.701172 15.367188 C 20.041542 15.032395 20.212881 14.615139 20.212891 14.115234 L 20.212891 13.833984 L 20.193359 13.833984 z M 0.5 17 L 0.5 17.5 L 8.2148438 17.5 C 8.1910443 17.332358 8.1628111 17.167221 8.1367188 17 L 0.5 17 z M 11.501953 17 C 11.415756 17.166778 11.333629 17.335169 11.242188 17.5 L 17.392578 17.5 C 16.671585 17.5 16.070854 17.326936 15.576172 17 L 11.501953 17 z M 17.392578 17.5 L 23.5 17.5 L 23.5 17 L 22.882812 17 L 22.882812 17.300781 L 20.212891 17.300781 L 20.212891 17 L 19.291016 17 C 19.197892 17.059424 19.111028 17.136328 19.013672 17.183594 C 18.569692 17.394564 18.028938 17.5 17.392578 17.5 z M 8.3046875 18.5 C 8.2996538 18.86663 8.2756009 19.231788 8.1835938 19.59375 C 7.8556937 20.584586 6.9902906 21.625784 5.7753906 21.634766 C 5.0392906 21.659414 3.2186 20.094543 2.5 20.417969 C 1.3634048 20.417969 0.89552784 21.062932 1.0507812 21.798828 C 1.168023 21.297532 1.6356399 20.917969 2.5 20.917969 C 3.2186 20.594543 5.0392906 22.159414 5.7753906 22.134766 C 6.9902906 22.125783 7.8556938 21.084586 8.1835938 20.09375 C 8.3173437 19.567491 8.3321406 19.0344 8.3066406 18.5 L 8.3046875 18.5 z "
         transform="matrix(-1,0,0,1.0020833,455.48136,19.100391)"
         id="path830" />
      <path
         style="stroke-width:0.99895996;fill:#000000;fill-opacity:1;opacity:0.2"
         d="M 11.277344 9.0957031 C 11.21439 9.2626147 11.205152 9.4462306 11.287109 9.6289062 C 11.618428 10.356636 12.084746 11.061291 12.134766 11.867188 C 12.142074 11.761616 12.15525 11.656957 12.15625 11.550781 C 12.17805 10.664579 11.643909 9.9126045 11.287109 9.1289062 C 11.282101 9.1177428 11.281719 9.1068771 11.277344 9.0957031 z M 5.4589844 9.1367188 C 5.0986315 9.7741478 6.2401837 10.11694 6.4023438 10.652344 C 7.2862437 12.189352 7.6647 13.922093 8 15.621094 C 8.0456306 15.910878 8.0908554 16.206088 8.1367188 16.5 L 8.2148438 16.5 C 8.1492138 16.037706 8.0716 15.575751 8 15.121094 C 7.6647 13.422092 7.2862437 11.689352 6.4023438 10.152344 C 6.2879252 9.7745686 5.6811668 9.4933305 5.4589844 9.1367188 z M 13.455078 9.9316406 C 13.331451 11.879442 12.53545 13.790383 11.724609 15.572266 C 11.571979 15.884829 11.411887 16.194103 11.242188 16.5 L 11.501953 16.5 C 11.575724 16.357267 11.654222 16.216406 11.724609 16.072266 C 12.556909 14.243226 13.37915 12.278654 13.46875 10.277344 C 13.472694 10.169462 13.461902 10.048918 13.455078 9.9316406 z M 18.169922 10.046875 C 17.602612 10.046875 17.074307 10.099593 16.585938 10.205078 C 16.097567 10.310568 15.643919 10.468726 15.224609 10.679688 L 15.224609 11.179688 C 15.643919 10.968726 16.097567 10.810568 16.585938 10.705078 C 17.074307 10.599592 17.602612 10.546875 18.169922 10.546875 C 18.870402 10.546875 19.386277 10.638823 19.716797 10.822266 C 19.952237 10.949693 20.100149 11.132574 20.167969 11.367188 L 20.212891 11.367188 L 20.212891 11.175781 C 20.212881 10.785961 20.047297 10.501143 19.716797 10.322266 C 19.386277 10.138824 18.870402 10.046875 18.169922 10.046875 z M 18.835938 12.833984 C 18.283437 12.833984 17.867107 12.919474 17.585938 13.09375 C 17.309678 13.268032 17.171875 13.525858 17.171875 13.865234 C 17.171875 13.946146 17.199997 14.010049 17.214844 14.082031 C 17.273205 13.880482 17.393673 13.715042 17.585938 13.59375 C 17.867107 13.419474 18.283437 13.333984 18.835938 13.333984 L 20.193359 13.333984 C 20.201291 13.261725 20.212889 13.191322 20.212891 13.115234 L 20.212891 12.833984 L 18.835938 12.833984 z M 14.523438 14.242188 C 14.517162 14.32545 14.5 14.400473 14.5 14.488281 C 14.5 15.23126 14.766058 15.836897 15.298828 16.304688 C 15.384873 16.378813 15.48193 16.437715 15.576172 16.5 L 17.392578 16.5 C 16.534228 16.5 15.836528 16.267901 15.298828 15.804688 C 14.829697 15.392773 14.579414 14.867521 14.523438 14.242188 z M 17.392578 16.5 L 19.291016 16.5 C 19.622561 16.288435 19.935596 16.023422 20.212891 15.658203 L 20.212891 15.158203 C 19.857711 15.626005 19.457642 15.968047 19.013672 16.183594 C 18.569692 16.394564 18.028938 16.5 17.392578 16.5 z M 20.212891 16.300781 L 20.212891 16.5 L 22.882812 16.5 L 22.882812 16.300781 L 20.212891 16.300781 z M 0.5 17.5 L 0.5 18 L 8.3046875 18 C 8.3069755 17.833585 8.3146016 17.666837 8.3066406 17.5 L 0.5 17.5 z M 10.642578 17.5 C 9.5822881 19.167427 8.2544875 20.691621 6.6484375 21.927734 C 5.7800375 22.550538 3.5845 23.271604 2.5 22.896484 C 1.6356199 22.467263 1.1680084 21.8564 1.0507812 21.296875 C 0.89612236 21.955593 1.363872 22.832322 2.5 23.396484 C 3.5845 23.771603 5.7800375 23.050537 6.6484375 22.427734 C 8.2544944 21.19162 9.5822915 19.667427 10.642578 18 L 23.5 18 L 23.5 17.5 L 10.642578 17.5 z "
         transform="matrix(-1,0,0,1.0020833,455.48136,19.100391)"
         id="path835" />
    </g>
  </g>
</svg>
